**kern	**kern	**dynam
*part1	*part1	*part1
*staff2	*staff1	*
*I"Piano	*	*
*clefF4	*clefF4	*
*k[b-e-]	*k[b-e-]	*
*g:	*g:	*
=1	=1	=1
*	*tremolo	*
!	!	!LO:DY:a
4.GGG 4.GG	64G 64B-LLLL	mf <
.	64d	.
.	64G 64B-	.
.	64d	.
.	64G 64B-	.
.	64d	.
.	64G 64B-	.
.	64d	.
.	64G 64B-	.
.	64d	.
.	64G 64B-	.
.	64d	.
.	64G 64B-	.
.	64d	.
.	64G 64B-	.
.	64d	.
.	64G 64B-	.
.	64d	.
.	64G 64B-	.
.	64d	.
.	64G 64B-	.
.	64d	.
.	64G 64B-	.
.	64d	.
8GGGL 8GG	64G 64B-	.
.	64d	.
.	64G 64B-	.
.	64d	.
.	64G 64B-	.
.	64d	.
.	64G 64B-	.
.	64d	.
8GGG 8GG	64G 64B-	.
.	64d	.
.	64G 64B-	.
.	64d	.
.	64G 64B-	.
.	64d	.
.	64G 64B-	.
.	64d	.
8GGGJ 8GG	64G 64B-	[[
.	64d	.
.	64G 64B-	.
.	64d	.
.	64G 64B-	.
.	64d	.
.	64G 64B-	.
.	64dJJJJ	.
=	=	=
*tremolo	*	*
!	!	!LO:DY:a
!	!	!LO:DY:a
64AAA-XLLLL	64A-X 64B-LLLL	fff >
64AA-X	64d	.
64AAA-X	64A-X 64B-	.
64AA-X	64d	.
64AAA-X	64A-X 64B-	.
64AA-X	64d	.
64AAA-X	64A-X 64B-	.
64AA-X	64d	.
64AAA-X	64A-X 64B-	.
64AA-X	64d	.
64AAA-X	64A-X 64B-	.
64AA-X	64d	.
64AAA-X	64A-X 64B-	.
64AA-X	64d	.
64AAA-X	64A-X 64B-	.
64AA-X	64d	.
64AAA-X	64A-X 64B-	.
64AA-X	64d	.
64AAA-X	64A-X 64B-	.
64AA-X	64d	.
64AAA-X	64A-X 64B-	.
64AA-X	64d	.
64AAA-X	64A-X 64B-	.
64AA-X	64d	.
64AAA-X	64A-X 64B-	]]
64AA-X	64d	.
64AAA-X	64A-X 64B-	.
64AA-X	64d	.
64AAA-X	64A-X 64B-	.
64AA-X	64d	.
64AAA-X	64A-X 64B-	.
64AA-X	64d	.
64AAA-X	64A-X 64B-	.
64AA-X	64d	.
64AAA-X	64A-X 64B-	.
64AA-X	64d	.
64AAA-X	64A-X 64B-	.
64AA-X	64d	.
64AAA-X	64A-X 64B-	.
64AA-X	64d	.
64AAA-X	64A-X 64B-	.
64AA-X	64d	.
64AAA-X	64A-X 64B-	.
64AA-X	64d	.
64AAA-X	64A-X 64B-	.
64AA-X	64d	.
64AAA-X	64A-X 64B-	.
64AA-XJJJJ	64dJJJJ	.
=	=	=
64GGGLLLL	64G 64B-LLLL	mf
64GG	64d	.
64GGG	64G 64B-	.
64GG	64d	.
64GGG	64G 64B-	.
64GG	64d	.
64GGG	64G 64B-	.
64GG	64d	.
64GGG	64G 64B-	.
64GG	64d	.
64GGG	64G 64B-	.
64GG	64d	.
64GGG	64G 64B-	.
64GG	64d	.
64GGG	64G 64B-	.
64GG	64d	.
64GGG	64G 64B-	.
64GG	64d	.
64GGG	64G 64B-	.
64GG	64d	.
64GGG	64G 64B-	.
64GG	64d	.
64GGG	64G 64B-	.
64GG	64d	.
64GGG	64G 64B-	mp
64GG	64d	.
64GGG	64G 64B-	.
64GG	64d	.
64GGG	64G 64B-	.
64GG	64d	.
64GGG	64G 64B-	.
64GG	64d	.
64GGG	64G 64B-	.
64GG	64d	.
64GGG	64G 64B-	.
64GG	64d	.
64GGG	64G 64B-	.
64GG	64d	.
64GGG	64G 64B-	.
64GG	64d	.
64GGG	64G 64B-	.
64GG	64d	.
64GGG	64G 64B-	.
64GG	64d	.
64GGG	64G 64B-	.
64GG	64d	.
64GGG	64G 64B-	.
64GGJJJJ	64dJJJJ	.
*Xtremolo	*	*
=	=	=
!	!	!LO:DY:a
4GGG 4GG	64G 64B-LLLL	p
.	64d	.
.	64G 64B-	.
.	64d	.
.	64G 64B-	.
.	64d	.
.	64G 64B-	.
.	64d	.
.	64G 64B-	.
.	64d	.
.	64G 64B-	.
.	64d	.
.	64G 64B-	.
.	64d	.
.	64G 64B-	.
.	64d	.
4r	64G 64B-	.
.	64d	.
.	64G 64B-	.
.	64d	.
.	64G 64B-	.
.	64d	.
.	64G 64B-	.
.	64d	.
.	64G 64B-	.
.	64d	.
.	64G 64B-	.
.	64d	.
.	64G 64B-	.
.	64d	.
.	64G 64B-	.
.	64d	.
8.r	64G 64B-	.
.	64d	.
.	64G 64B-	.
.	64d	.
.	64G 64B-	.
.	64d	.
.	64G 64B-	.
.	64d	.
.	64G 64B-	.
.	64d	.
.	64G 64B-	.
.	64d	.
16BBB- 16BB-	64G 64B-	.
.	64d	.
.	64G 64B-	.
.	64dJJJJ	.
=	=	=
((4FFF#X 4FF#X	64F#X 64B-LLLL	p >
.	64d	.
.	64F#X 64B-	.
.	64d	.
.	64F#X 64B-	.
.	64d	.
.	64F#X 64B-	.
.	64d	.
.	64F#X 64B-	.
.	64d	.
.	64F#X 64B-	.
.	64d	.
.	64F#X 64B-	.
.	64d	.
.	64F#X 64B-	.
.	64dJJJJ	.
4GGG)) 4GG	64G 64B-LLLL	.
.	64d	.
.	64G 64B-	.
.	64d	.
.	64G 64B-	.
.	64d	.
.	64G 64B-	.
.	64d	.
.	64G 64B-	.
.	64d	.
.	64G 64B-	.
.	64d	.
.	64G 64B-	.
.	64d	.
.	64G 64B-	.
.	64d	.
8.r	64G 64B-	] pp
.	64d	.
.	64G 64B-	.
.	64d	.
.	64G 64B-	.
.	64d	.
.	64G 64B-	.
.	64d	.
.	64G 64B-	.
.	64d	.
.	64G 64B-	.
.	64d	.
16BBB- 16BB-	64G 64B-	.
.	64d	.
.	64G 64B-	.
.	64dJJJJ	.
=	=	=
((4FFF#X 4FF#X	64F#X 64B-LLLL	p >
.	64d	.
.	64F#X 64B-	.
.	64d	.
.	64F#X 64B-	.
.	64d	.
.	64F#X 64B-	.
.	64d	.
.	64F#X 64B-	.
.	64d	.
.	64F#X 64B-	.
.	64d	.
.	64F#X 64B-	.
.	64d	.
.	64F#X 64B-	.
.	64dJJJJ	.
4GGG)) 4GG	64G 64B-LLLL	.
.	64d	.
.	64G 64B-	.
.	64d	.
.	64G 64B-	.
.	64d	.
.	64G 64B-	.
.	64d	.
.	64G 64B-	.
.	64d	.
.	64G 64B-	.
.	64d	.
.	64G 64B-	.
.	64d	.
.	64G 64B-	.
.	64d	.
8.r	64G 64B-	] pp
.	64d	.
.	64G 64B-	.
.	64d	.
.	64G 64B-	.
.	64d	.
.	64G 64B-	.
.	64d	.
.	64G 64B-	.
.	64d	.
.	64G 64B-	.
.	64d	.
16BBB- 16BB-	64G 64B-	.
.	64d	.
.	64G 64B-	.
.	64dJJJJ	.
=	=	=
4GGG 4GG	64G 64B-LLLL	pp <
.	64d	.
.	64G 64B-	.
.	64d	.
.	64G 64B-	.
.	64d	.
.	64G 64B-	.
.	64d	.
.	64G 64B-	.
.	64d	.
.	64G 64B-	.
.	64d	.
.	64G 64B-	.
.	64d	.
.	64G 64B-	.
.	64d	.
4GGG 4GG	64G 64B-	.
.	64d	.
.	64G 64B-	.
.	64d	.
.	64G 64B-	.
.	64d	.
.	64G 64B-	.
.	64d	.
.	64G 64B-	.
.	64d	.
.	64G 64B-	.
.	64d	.
.	64G 64B-	.
.	64d	.
.	64G 64B-	.
.	64d	.
4r	64G 64B-	.
.	64d	.
.	64G 64B-	.
.	64d	.
.	64G 64B-	.
.	64d	.
.	64G 64B-	.
.	64d	.
.	64G 64B-	.
.	64d	.
.	64G 64B-	.
.	64d	.
.	64G 64B-	.
.	64d	.
.	64G 64B-	.
.	64dJJJJ	.
*	*Xtremolo	*
=	=	=
2.GGG; 2.GG	2.G; 2.B- 2.d	[ fz
==	==	==
*-	*-	*-
!!!system-decoration: {(s1,s2)}
